icons/crossbell-alt.svg

<svg xmlns="http://www.w3.org/2000/svg" fill="none" viewBox="0 0 1024 1024">
  <g fill="#E7B75B" clip-path="url(#crossbell-alt_svg__a)">
    <path d="M666.281 942.436c0 44.679-69.077 80.894-154.281 80.894s-154.32-36.215-154.32-80.894z"/>
    <path d="m389.588 400.7-250.701 44.898C138.887 199.696 292.317.333 481.6.333l-1.547 323.372z"/>
    <path d="m467.444 564.282-13.498 133.929-18.332 182.038c-1.509.219-3.056.365-4.603.511-61.534 6.054-147.86-12.401-234.032-54.309C92.823 775.717 17.946 704.922-.001 646.93c26.294-1.893 51.759-9.535 74.376-22.322 31.25-17.033 54.379-40.12 65.17-62.296a70 70 0 0 0 3.867-9.665 49.3 49.3 0 0 0 2.244-24.255l243.662-37.896z"/>
    <path d="m634.295 400.7 250.701 44.898C885.112 199.696 731.644.333 542.399.333l1.547 323.372z"/>
    <path d="m556.555 564.282 13.498 133.929 18.333 182.038c1.508.219 3.055.365 4.602.511 61.535 6.054 147.861-12.401 234.032-54.309C931.253 775.717 1006.05 704.922 1024 646.93c-26.294-1.893-51.758-9.535-74.375-22.322-31.251-17.033-54.38-40.12-65.17-62.296a69.6 69.6 0 0 1-3.868-9.665 49.3 49.3 0 0 1-2.243-24.255l-243.662-37.896z"/>
  </g>
  <defs>
    <clipPath id="crossbell-alt_svg__a">
      <path fill="#fff" d="M0 .333h1024v1023H0z"/>
    </clipPath>
  </defs>
</svg>

<svg width="1024" height="1024" viewBox="0 0 1024 1024" fill="none" xmlns="http://www.w3.org/2000/svg">
<g clip-path="url(#clip0_1_2)">
<path d="M666.281 942.436C666.281 987.115 597.204 1023.33 512 1023.33C426.795 1023.33 357.68 987.115 357.68 942.436H666.281Z" fill="#E7B75B"/>
<path d="M389.588 400.7L138.887 445.598C138.887 199.696 292.317 0.333485 481.6 0.333485L480.053 323.705L389.588 400.7Z" fill="#E7B75B"/>
<path d="M467.444 564.282L453.946 698.211L435.614 880.249C434.105 880.468 432.558 880.614 431.011 880.76C369.477 886.814 283.151 868.359 196.979 826.451C92.8234 775.717 17.9457 704.922 -0.000236511 646.93C26.2931 645.037 51.7575 637.395 74.3747 624.608C105.625 607.575 128.754 584.488 139.545 562.312C141.077 559.182 142.369 555.951 143.412 552.647C146.182 544.843 146.95 536.531 145.656 528.392L389.318 490.496L467.444 564.282Z" fill="#E7B75B"/>
<path d="M634.295 400.7L884.996 445.598C885.112 199.696 731.644 0.333485 542.399 0.333485L543.946 323.705L634.295 400.7Z" fill="#E7B75B"/>
<path d="M556.555 564.282L570.053 698.211L588.386 880.249C589.894 880.468 591.441 880.614 592.988 880.76C654.523 886.814 740.849 868.359 827.02 826.451C931.253 775.717 1006.05 704.922 1024 646.93C997.706 645.037 972.242 637.395 949.625 624.608C918.374 607.575 895.245 584.488 884.455 562.312C882.922 559.182 881.63 555.951 880.587 552.647C877.818 544.843 877.049 536.531 878.344 528.392L634.682 490.496L556.555 564.282Z" fill="#E7B75B"/>
</g>
<defs>
<clipPath id="clip0_1_2">
<rect width="1024" height="1023" fill="white" transform="translate(0 0.333344)"/>
</clipPath>
</defs>
</svg>
